svgs/net_analyzer.svg

<svg width="192" height="192" viewBox="0 0 192 192" fill="none" xmlns="http://www.w3.org/2000/svg">
<path d="M144.106 141.588V120.883H138.722C136.991 120.883 136.077 118.833 137.234 117.545L153.273 99.7063L168.171 117.603C169.256 118.906 168.329 120.883 166.634 120.883H161.029V141.588C161.029 143.798 159.239 145.588 157.029 145.588H148.106C145.897 145.588 144.106 143.798 144.106 141.588Z" stroke="black" stroke-width="10" stroke-linecap="round" stroke-linejoin="round"/>
<path d="M110.411 129.118V149.824H105.027C103.296 149.824 102.382 151.874 103.54 153.161L119.578 171L134.477 153.103C135.561 151.8 134.635 149.824 132.939 149.824H127.335V129.118C127.335 126.909 125.544 125.118 123.335 125.118H114.411C112.202 125.118 110.411 126.909 110.411 129.118Z" stroke="black" stroke-width="10" stroke-linecap="round" stroke-linejoin="round"/>
<path d="M54.6513 41.3871H64.2723V22.1249H45.0303V41.3871H54.6513ZM54.6513 41.3871V53.7699M54.6513 53.7699H32.6605V66.1528M54.6513 53.7699H76.6422V66.1528M32.6605 66.1528H23.0395V85.415H42.2815V66.1528H32.6605ZM76.6422 66.1528H67.0212V85.415H86.2632V66.1528H76.6422Z" stroke="black" stroke-width="10" stroke-linejoin="round"/>
<path d="M129.092 54.7907L109.717 73.1652" stroke="black" stroke-width="8" stroke-linecap="round" stroke-linejoin="round"/>
<path d="M129.092 52.7491L109.717 33.3537" stroke="black" stroke-width="8" stroke-linecap="round" stroke-linejoin="round"/>
<path d="M167.941 53.7699C167.941 71.8732 153.282 86.5398 135.211 86.5398C117.139 86.5398 102.48 71.8732 102.48 53.7699C102.48 35.6666 117.139 21 135.211 21C153.282 21 167.941 35.6666 167.941 53.7699Z" stroke="black" stroke-width="10"/>
<path d="M137.289 53.7699C137.289 54.9224 136.357 55.8531 135.211 55.8531C134.064 55.8531 133.132 54.9224 133.132 53.7699C133.132 52.6174 134.064 51.6867 135.211 51.6867C136.357 51.6867 137.289 52.6174 137.289 53.7699Z" stroke="black" stroke-width="4"/>
<path d="M150.605 53.7699C150.605 62.2889 143.708 69.186 135.211 69.186C126.713 69.186 119.816 62.2889 119.816 53.7699C119.816 45.2508 126.713 38.3537 135.211 38.3537C143.708 38.3537 150.605 45.2508 150.605 53.7699Z" stroke="black" stroke-width="10"/>
<path d="M69.4975 165.674C65.0195 167.881 59.9801 169.121 54.6513 169.121C36.0662 169.121 21 154.039 21 135.435C21 129.96 22.3044 124.791 24.619 120.221M85.3265 149.306C87.2383 145.075 88.3026 140.379 88.3026 135.435C88.3026 116.83 73.2364 101.748 54.6513 101.748C50.4463 101.748 46.4215 102.52 42.7105 103.93" stroke="black" stroke-width="10" stroke-linecap="round" stroke-linejoin="round"/>
<ellipse cx="54.6513" cy="136.756" rx="4.61881" ry="4.62366" stroke="black" stroke-width="6"/>
<path d="M63.0932 152.63C60.5469 153.885 57.6814 154.59 54.6513 154.59C44.0833 154.59 35.5162 146.014 35.5162 135.435C35.5162 132.322 36.258 129.382 37.5741 126.784M72.0941 143.322C73.1812 140.917 73.7864 138.246 73.7864 135.435C73.7864 124.855 65.2193 116.279 54.6513 116.279C52.2602 116.279 49.9716 116.718 47.8614 117.52" stroke="black" stroke-width="10" stroke-linecap="round" stroke-linejoin="round"/>
</svg>

<svg width="192" height="192" viewBox="0 0 192 192" fill="none" xmlns="http://www.w3.org/2000/svg"><path d="M144.106 141.588v-20.705h-5.384c-1.731 0-2.645-2.05-1.488-3.338l16.039-17.839 14.898 17.897c1.085 1.303.158 3.28-1.537 3.28h-5.605v20.705c0 2.21-1.79 4-4 4h-8.923a4 4 0 0 1-4-4ZM110.411 129.118v20.706h-5.384c-1.731 0-2.645 2.05-1.487 3.337L119.578 171l14.899-17.897c1.084-1.303.158-3.279-1.538-3.279h-5.604v-20.706a4 4 0 0 0-4-4h-8.924a4 4 0 0 0-4 4Z" stroke="#000" stroke-width="10" stroke-linecap="round" stroke-linejoin="round"/><path d="M54.651 41.387h9.621V22.125H45.03v19.262h9.621Zm0 0V53.77m0 0h-21.99v12.383M54.65 53.77h21.991v12.383m-43.981 0h-9.622v19.262h19.242V66.153h-9.62Zm43.981 0h-9.62v19.262h19.241V66.153h-9.62Z" stroke="#000" stroke-width="10" stroke-linejoin="round"/><path d="m129.092 54.79-19.375 18.375M129.092 52.75l-19.375-19.396" stroke="#000" stroke-width="8" stroke-linecap="round" stroke-linejoin="round"/><path d="M167.941 53.77c0 18.103-14.659 32.77-32.73 32.77-18.072 0-32.731-14.667-32.731-32.77S117.139 21 135.211 21c18.071 0 32.73 14.667 32.73 32.77Z" stroke="#000" stroke-width="10"/><path d="M137.289 53.77a2.08 2.08 0 0 1-2.078 2.083 2.08 2.08 0 0 1-2.079-2.083 2.08 2.08 0 0 1 2.079-2.083 2.08 2.08 0 0 1 2.078 2.083Z" stroke="#000" stroke-width="4"/><path d="M150.605 53.77c0 8.519-6.897 15.416-15.394 15.416-8.498 0-15.395-6.897-15.395-15.416 0-8.52 6.897-15.416 15.395-15.416 8.497 0 15.394 6.897 15.394 15.416Z" stroke="#000" stroke-width="10"/><path d="M69.498 165.674a33.49 33.49 0 0 1-14.847 3.447C36.066 169.121 21 154.039 21 135.435a33.575 33.575 0 0 1 3.619-15.214m60.707 29.085a33.601 33.601 0 0 0 2.977-13.871c0-18.605-15.067-33.687-33.652-33.687-4.205 0-8.23.772-11.94 2.182" stroke="#000" stroke-width="10" stroke-linecap="round" stroke-linejoin="round"/><ellipse cx="54.651" cy="136.756" rx="4.619" ry="4.624" stroke="#000" stroke-width="6"/><path d="M63.093 152.63a19.042 19.042 0 0 1-8.442 1.96c-10.568 0-19.135-8.576-19.135-19.155 0-3.113.742-6.053 2.058-8.651m34.52 16.538a19.103 19.103 0 0 0 1.692-7.887c0-10.58-8.567-19.156-19.135-19.156-2.39 0-4.68.439-6.79 1.241" stroke="#000" stroke-width="10" stroke-linecap="round" stroke-linejoin="round"/></svg>
